storage/app/icons/phosphoricons/duotone/stack-simple-duotone.svg

<svg xmlns="http://www.w3.org/2000/svg" fill="currentColor" viewBox="0 0 256 256"><path d="m240 104-112 64-112-64 112-64Z" opacity=".2"/><path d="m12 111 112 64a8 8 0 0 0 7.94 0l112-64a8 8 0 0 0 0-13.9l-112-64a8 8 0 0 0-7.94 0l-112 64a8 8 0 0 0 0 13.9m116-61.79L223.87 104 128 158.79 32.13 104ZM247 140a8 8 0 0 1-3 11l-112 64a8 8 0 0 1-7.94 0L12 151a8 8 0 1 1 8-13.95l108 61.74 108-61.74a8 8 0 0 1 11 2.95"/></svg>

<svg xmlns="http://www.w3.org/2000/svg" viewBox="0 0 256 256" fill="currentColor"><path d="M240,104,128,168,16,104,128,40Z" opacity="0.2"/><path d="M12,111l112,64a8,8,0,0,0,7.94,0l112-64a8,8,0,0,0,0-13.9l-112-64a8,8,0,0,0-7.94,0l-112,64A8,8,0,0,0,12,111ZM128,49.21,223.87,104,128,158.79,32.13,104ZM247,140A8,8,0,0,1,244,151L132,215a8,8,0,0,1-7.94,0L12,151A8,8,0,1,1,20,137.05l108,61.74,108-61.74A8,8,0,0,1,247,140Z"/></svg>
